X:571
T:Bush In Bloom, The
C:Joe Buchanan's Scottish Tome - Page 153.3
I:153 3
Z:Carl Allison
R:Reel
L:1/8
M:4/4
K:G
ge |S d2 (BG) AG(EF) | G2 (Bd) ef{a}ge | d2 (BG) AGEd | eaag fde^c |
d2 (BG) AGEF | G2 (Bd) ef{a}ge | d2 (BG) AGEF | GBAF G2 |]
(ef) | g2 (dg) Bgdg | g2 (bg) ageg | g2 (dg) Bgdg | egfg g2 (ga) |
b>g ((3ggg) agef | gage dega | bgaf gfed | edef gage S|]

